!!!COM: Mozart, Wolfgang Amadeus
!!!CDT: 1756/01/27/-1791/12/05/
!!!CNT: German
!!!OTL: Piano Sonata No. 13 in B-flat major
!!!SCT1: K<sup>1</sup> 332
!!!SCT2: K<sup>6</sup> 300k
!!!OMV: Mvmt. 2
!!!OMD: Andante cantabile
!!!ODT: ~1783///
**kern	**kern	**dynam
*staff2	*staff1	*staff1/2
*>[A,A,B,B1,B,B2]	*>[A,A,B,B1,B,B2]	*>[A,A,B,B1,B,B2]
*>norep[A,B,B2]	*>norep[A,B,B2]	*>norep[A,B,B2]
*>A	*>A	*>A
*clefF4	*clefG2	*clefG2
*k[b-e-a-]	*k[b-e-a-]	*k[b-e-a-]
*E-:	*E-:	*E-:
*M3/4	*M3/4	*M3/4
*MM60	*MM60	*MM60
=1-	=1-	=1-
2E-\	4g/ 4b-/	.
.	(8f/ 8a-/L	.
.	8e-/ 8g/	.
4r	8a-/ 8cc/	.
.	8g/) 8b-/J	.
=2	=2	=2
(4E-\	(4g/ 4b-/	.
4F\	4f/ 4a-/	.
4G\)	4e-/) 4g/	.
=3	=3	=3
4B-\ (4d-\	(4en/	.
4A-\ 4c\)	8f/L	.
.	8cc/J)	.
4r	(16b-/LL	.
.	16a-/	.
.	16g/	.
.	16f/JJ)	.
=4	=4	=4
(16AAn/LL	(4G/ 4e-/	.
16BB-/	.	.
16C/	.	.
16BB-/JJ)	.	.
4BB-/	16F/) 16d/LL	.
.	32r	.
.	32B-/JJk	.
.	32d/LLL	.
.	(32c/	.
.	32e-/	.
.	32d/JJJ	.
4r	32f/LLL	.
.	32e-/	.
.	32g/	.
.	32f/JJJ	.
.	32a-/LLL	.
.	32g/	.
.	32b-/	.
.	32a-/JJJ)	.
=5	=5	=5
*	*^	*
4EE-/ 4E-/	(16cc/LK	4g\	.
.	8b-/	.	.
.	32cc/LL	.	.
.	32b-/JJJ	.	.
4r	16a-/LL	2r	.
.	16g/	.	.
.	16f/	.	.
.	16e-/JJ	.	.
4E-\ 4c\	(16gg\LL)	.	.
.	16dd\	.	.
.	16ee-\	.	.
.	16cc\JJ	.	.
*	*v	*v	*
=6	=6	=6
4F\ 4c\	4b-\	.
4B-\ 4d\	8.a-/L	.
.	32g/LL	.
.	32a-/JJJ	.
8c\ 8e-\	16g/LL)	.
.	(16ee-/	.
8r	16dd/	.
.	16dd-/JJ	.
=7	=7	=7
*^	*^	*
4A-/	4AA-\	16bn/LL)	2r	.
.	.	(32ddn/L	.	.
.	.	32cc/J)	.	.
.	.	(32b-/L	.	.
.	.	32a-/J)	.	.
.	.	(32g/L	.	.
.	.	32f/JJJ)	.	.
(4G/	2BB-\	(4.e-/	.	.
4A-/)	.	.	8r	.
.	.	16g/LL	8d\	.
.	.	16f/JJ)	.	.
*v	*v	*	*	*
*	*v	*v	*
=8	=8	=8
(16E-\LL	4e-/	.
16G\	.	.
16B-\	.	.
16G\JJ	.	.
16E-\LL	8r	.
16G\	.	.
16B-\	(8g'/ 8b-'/L	.
16G\JJ	.	.
16E-\LL	8g'/ 8b-'/	.
16G\	.	.
16B-\	8g'/) 8b-'/J	.
16G\JJ	.	.
=9	=9	=9
*	*^	*
16E-\LL	(8ee-/	2a-\	.
16F\	.	.	.
16A-\	4dd/)	.	.
16F\JJ	.	.	.
16E-\LL	.	.	.
16F\	.	.	.
16A-\	(16bb-/LL	.	.
16F\JJ	16aa-/JJ)	.	.
16E-\LL	4r	(16gg\LL	.
16F\	.	16ff\)	.
16A-\	.	(16ee-\	.
16F\JJ	.	16dd\JJ)	.
*	*v	*v	*
=10	=10	=10
16E-\LL	(16ff\LK	.
16G\	8ee-\	.
16B-\	.	.
16G\JJ	32dd\LL	.
.	32cc\JJJ	.
16E-\LL	8b-\)	.
16G\	.	.
16B-\	(8g'/ 8b-'/L	.
16G\JJ	.	.
16E-\LL	8g'/ 8b-'/	.
16G\	.	.
16B-\	8g'/) 8b-'/J	.
16G\JJ	.	.
=11	=11	=11
*	*^	*
16E-\LL	(8ee-/	2a-\	.
16F\	.	.	.
16A-\	4dd/)	.	.
16F\JJ	.	.	.
16E-\LL	.	.	.
16F\	.	.	.
16A-\	16bb-/LL	.	.
16F\JJ	16aa-/JJ	.	.
16E-\LL	4r	(16gg\LL	.
16F\	.	16ff\)	.
16A-\	.	(16ee-\	.
16F\JJ)	.	16dd\JJ)	.
*	*v	*v	*
=12	=12	=12
4E-\ 4G\	8ee-\L	.
.	32ffq/LLL	.
.	(32ee-q/	.
.	32ddq/JJJ	.
.	(32ee-\LL)	.
.	32ff\	.
.	32gg\	.
.	32ee-\JJJ	.
8r	8b-\)	.
8G\ (8B-\L	(8g/ 8b-/L	.
8A-\ 8c\)	8f/ 8a-/	.
8An\ 8c\J	8e-/) 8g/J	.
=13	=13	=13
*	*^	*
4B-\	(8.b-/L	4e-\	.
.	16g/Jk)	.	.
8r	4f/	4d\	.
(8B-\L	.	.	.
8F\	4r	4r	.
8D\J)	.	.	.
*	*v	*v	*
=14	=14	=14
.	(32fq/	.
(8BB-\L	4.ff\)	.
8D\	.	.
8F\	.	.
8B-\J	(32ee-\LLL	.
.	32dd\	.
.	32cc\	.
.	32b-\JJJ	.
8e-\L	8an/L)	.
8d\J)	8b-/J	.
=15	=15	=15
8c\ (8e-\L	(8cc\L	.
8B-\ 8d\J)	32ee-\LL	.
.	32dd\	.
.	32cc\	.
.	32dd\JJJ	.
8An\ 8c\	8ee-\)	.
8r	(8f'/L	.
4r	8f'/	.
.	8f'/J)	.
=16	=16	=16
*	*^	*
8r	2r	4.ee-\	.
(8F\L	.	.	.
8An\	.	.	.
8c\J	.	(32ff\LLL	.
.	.	32ee-\	.
.	.	32dd\	.
.	.	32cc\JJJ	.
8d\L)	8b-/L	8b-\L)	.
8e-\ [8f\J	8cc/J	8an\J	.
=17	=17	=17	=17
8f\L]	(8dd/L	(8b-\L	.
8c\ 8e-\J	32ff/LL	8cc\J)	.
.	32ee-/	.	.
.	32dd/	.	.
.	32ee-/JJJ	.	.
8B-\ 8d\	8ff/)	8dd\	.
(8BB-'/L	4.r	8r	.
8BB-'/	.	4r	.
8BB-'/J)	.	.	.
*	*v	*v	*
=18	=18	=18
8r	(4.aa-\	.
(8D\L	.	.
8F\	.	.
8A-\	32gg\LLL	.
.	32ff\	.
.	32ee-\	.
.	32dd\JJJ	.
8G\)	8ee-\L)	.
8D\J	8ff'\J	.
=19	=19	=19
8r	4.ff#\	.
8E-\ 8B-\L	.	.
8E-\ (8B-\	.	.
8E-\ 8Bn\)	16aa-\LL	.
.	(16gg\JJ	.
8E-\ 8c\	16ffn\LL	.
.	16ee-\	.
8E-\ 8An\J	16dd\	.
.	16cc\JJ)	.
=20	=20	=20
*	*^	*
8D\ 8B-\L	2r	(24ff\LL	.
.	.	24een\	.
.	.	24ff\JJ	.
8E-\ (8B-\	.	24gg\LL	.
.	.	24g\	.
.	.	24ee-\JJ)	.
8F\ 8d\)	.	(4b-\	.
8F\ 8d\	.	.	.
8F\ 8e-\	16dd/LL	4an\	.
.	16cc/	.	.
8F\ 8e-\J	16b-/	.	.
.	16cc/JJ	.	.
=21	=21	=21	=21
16B-\ 16d\	4b-/)	4b-\	.
16B-\LL	.	.	.
16d\	.	.	.
(16f\JJ	.	.	.
16e-\LL	2r	8r	.
16f\	.	.	.
16d\	.	8b-\ 8ff\L	.
16f\JJ	.	.	.
16c\LL	.	8cc\ 8ff\	.
16f\	.	.	.
16B-\	.	8dd\ 8ff\J	.
16f\JJ	.	.	.
=22	=22	=22	=22
16An\LL	(8ff/L	4.ee-\	.
16c\	.	.	.
16e-\	32ff/LL	.	.
.	32gg/)	.	.
16d\JJ	32ff/	.	.
.	32een/JJJ	.	.
16c\LL	8ff/L	.	.
16B-\	.	.	.
16A\	(8ff/)	(8an\L	.
16G\JJ	.	.	.
16F\LL	8gg/	8b-\	.
16G\	.	.	.
16E-\	8aan/J)	8cc\J)	.
16F\JJ	.	.	.
=23	=23	=23	=23
16D\LL	[8bb-/L	4.b-\	.
16F\	.	.	.
16B-\	32bb-/LL]	.	.
.	32ccc/	.	.
16F\JJ	32ddd/	.	.
.	32bb-/JJJ	.	.
8d\)	8ff/	.	.
8B-\ (8d\L	4.r	8dd\ (8ff\L	.
8c\ 8e-\	.	8cc\ 8ee-\	.
8d\ 8f\J)	.	8b-\ 8dd\J)	.
*	*v	*v	*
=24	=24	=24
*^	*	*
4e-\ 4g\	4r	([8cc\L	.
.	.	32cc\LL]	.
.	.	32dd\	.
.	.	32ee-\	.
.	.	32cc\JJJ	.
8r	8r	8gg\)	.
(8c/L	8E-\	(8g/ 8ee-/L	.
8d/	4F\	8f/) 8b-/	.
8e-/J)	.	8an/ 8cc/J	.
*v	*v	*	*
=25	=25	=25
*	*^	*
[4B-\ (4e-\	(8.cc/L	(4an\	.
.	16cc#/Jk	.	.
16B-\] 16d\)	8dd/)	8b-\)	.
(16B-\LL	.	.	.
16d\	4.r	8b-\ 8ff\L	.
16f\JJ	.	.	.
16e-\LL	.	8ccn\ 8ff\	.
16d\	.	.	.
16c\	.	8dd\ 8ff\J	.
16B-\JJ	.	.	.
=26	=26	=26	=26
16An\LL	([8ff/L	4.ee-\	.
16c\	.	.	.
16e-\	32ff/LL]	.	.
.	32gg/	.	.
16d\JJ	32ff/	.	.
.	32een/JJJ	.	.
16c\LL	8ff/L)	.	.
16B-\	.	.	.
16A\	(8ff/	(8an\L	.
16G\JJ	.	.	.
16F\LL	8gg/	8b-\	.
16G\	.	.	.
16E-\	8aan/J)	8cc\J)	.
16F\JJ	.	.	.
=27	=27	=27	=27
16D\LL	([8bb-/L	4.b-\	.
16F\	.	.	.
16B-\	32bb-/LL]	.	.
.	32ccc/	.	.
16F\JJ	32ddd/)	.	.
.	32bb-/JJJ	.	.
8d\)	8ff/	.	.
8B-\ (8d\L	4.r	8dd\ (8ff\L	.
8c\ 8e-\	.	8cc\ 8ee-\	.
8d\ 8f\J)	.	8b-\ 8dd\J)	.
*	*v	*v	*
=28	=28	=28
*^	*	*
4e-\ 4g\	2r	(32bn\LLL	.
.	.	32cc\	.
.	.	32dd\	.
.	.	32cc\JJJ	.
.	.	32ee-\LLL	.
.	.	32dd\	.
.	.	32ff\	.
.	.	32ee-\JJJ	.
4r	.	4gg\	.
4F\ 4e-\	8An/L	8ff\L)	.
.	8c/J	16.r	.
.	.	32an\Jkk	.
*v	*v	*	*
=29	=29	=29
(16B-\LL	4b-\	.
16d\	.	.
16f\	.	.
16d\JJ	.	.
16B-\LL	8r	.
16d\	.	.
16f\	(8aa-\L	.
16d\JJ	.	.
16e-\LL	8gg\	.
16c\	.	.
16f\	8aan\J	.
16e-\JJ	.	.
=30	=30	=30
16d\LL	8ccc\L	.
16f\	.	.
16d\	8bb-\J)	.
16c\JJ	.	.
16B-\LL	8r	.
16A-\	.	.
16F\	(8a-/L	.
16D\JJ	.	.
16E-/LL	8g/	.
16C/	.	.
16F/	8e-/) 8an/J	.
16FF/JJ	.	.
=31	=31	=31
4.BB-/)	(4e-/ 4cc/	>
.	8d/) 8b-/	.
(8A-\L	(8d/ 8f/L	p
8G\	8e-/ 8g/	.
8F\J)	8f/) 8a-/J	.
=32:|!|:	=32:|!|:	=32:|!|:
*>B	*>B	*>B
2En\	(4f#/ 4an/	.
.	8g/) 8b-/L	.
.	(8b-/ 8dd-/	.
4C/	8en/ 8g/	.
.	8a-/) 8cc/J	.
=33	=33	=33
2D-\	(4g/ (4b-/	.
.	8fn/) 8a-/)	.
.	(8ff'\L	.
4A-\ (4c\	8ff'\	.
.	8ff'\J)	.
=34	=34	=34
*^	*	*
2r	4B-\ 4d-\)	(4ff#\	.
.	4r	8gg\)	.
.	.	(4bb-\	.
*clefG2	*clefG2	*	*
4b-/	4c\	.	.
.	.	8een\)	.
=35	=35	=35	=35
(4b-/	4.f\	(4gg\	.
8a-/)	.	8ffn\)	.
*clefF4	*clefF4	*	*
(8FF'/L	4.r	8r	.
8FF'/	.	4r	.
8FF'/J)	.	.	.
*v	*v	*	*
=36	=36	=36
2.FF/	8r	.
.	8aa-\	.
.	(16gg\LL	.
.	16ff\	.
.	16ee-\	.
.	16dd-\JJ	.
.	16cc\LL	.
.	16dd-\	.
.	16ff\	.
.	16dd-\JJ	.
=37	=37	=37
*	*^	*
4.FF/	4cc/)	2.dn\ 2.a-\	.
.	2bn/	.	.
(8FF'/L	.	.	.
8FF'/	.	.	.
8FF'/J)	.	.	.
=38	=38	=38	=38
2.FF#/	8r	8r	.
.	8cc/	4e-\	.
.	16bn/LL	.	.
.	(16cc/	.	.
.	16dd/	4e-\	.
.	16cc/JJ	.	.
.	16b/LL	.	.
.	16cc/	.	.
.	16ee-/	[8e-\	.
.	16dd/JJ)	.	.
=39	=39	=39	=39
4.GG/	(4bn/	4e-\]	.
.	2cc/)	2e-\	.
(8GG'/L	.	.	.
8GG'/	.	.	.
8GG'/J)	.	.	.
*	*v	*v	*
=40	=40	=40
(2AA-/	8r	.
.	(8e-'/ 8cc'/L	.
.	8e-'/ 8cc'/	.
.	8e-'/ 8cc'/	.
4AAn/)	8e-'/ 8cc'/	.
.	8e-'/) 8cc'/J	.
=41	=41	=41
*	*^	*
(4BB-/	([8dd-/L	4.e-\	.
.	32dd-/LL]	.	.
.	32cc/	.	.
.	32b-/	.	.
.	32a-/JJJ	.	.
4D-/	8g/	.	.
.	(8gg\L)	4.r	p
4C/)	8aa-\	.	.
.	[8cc\J	.	.
=42	=42	=42	=42
*^	*	*	*
4r	4D-\	4r	16cc\LL]	.
.	.	.	16b-\	.
.	.	.	16dd-\	.
.	.	.	16ff\JJ)	.
(4c/	4E-\	(4.a-/	4.r	.
4d-/)	4E-\	.	.	.
.	.	16cc/LL	8g\	.
.	.	16b-/JJ	.	.
*v	*v	*	*	*
*	*v	*v	*
=43	=43	=43
16A-\LL	4a-/)	.
16c\	.	.
16e-\	.	.
16c\JJ	.	.
16A-\LL	8r	.
16c\	.	.
16e-\	8a-'\ (8cc'\L	.
16c\JJ	.	.
16A-\LL	8a-'\ 8cc'\	.
16c\	.	.
16e-\	8a-'\ 8cc'\J)	.
16c\JJ	.	.
=44	=44	=44
*	*^	*
16G\LL	(8ff/	4.b-\ 4.cc\	.
16B-\	.	.	.
16c\	4een/)	.	.
16B-\JJ	.	.	.
16G\LL	.	.	.
16B-\	.	.	.
16c\	4.r	8b-'\ (8cc'\L	.
16B-\JJ	.	.	.
16G\LL	.	8b-'\ 8cc'\	.
16B-\	.	.	.
16c\	.	8b-'\ 8cc'\J)	.
16B-\JJ	.	.	.
=45	=45	=45	=45
16F\LL	(8gg/	4.a-\ 4.cc\	.
16A-\	.	.	.
16c\	4ff/)	.	.
16A-\JJ	.	.	.
16F\LL	.	.	.
16A-\	.	.	.
16c\	4.r	8a-'\ (8cc'\L	.
16A-\JJ	.	.	.
16F\LL	.	8a-'\ 8cc'\	.
16A-\	.	.	.
16c\	.	8a-'\ 8cc'\J)	.
16A-\JJ	.	.	.
=46	=46	=46	=46
16E-\LL	(8aa-/	4.a-\ 4.cc\	.
16G-\	.	.	.
16A-\	4gg-/)	.	.
16G-\JJ	.	.	.
16E-\LL	.	.	.
16G-\	.	.	.
16A-\	4.r	8a-'\ (8cc'\L	.
16G-\JJ	.	.	.
16E-\LL	.	8a-'\ 8cc'\	.
16G-\	.	.	.
16A-\	.	8a-'\ 8cc'\J)	.
16G-\JJ	.	.	.
=47	=47	=47	=47
16D-\LL	(8gg-/	4.a-\ 4.dd-\	.
16F-\	.	.	.
16A-\	4ff-/)	.	.
16F-\JJ	.	.	.
16D-\LL	.	.	.
16F-\	.	.	.
16A-\	4.r	8a-\ 8ff-\L	.
16F-\JJ	.	.	.
16C-\LL	.	8a-\ (8ff-\	.
16E-\	.	.	.
16A-\	.	8a-\ 8ee-\J)	.
16E-\JJ	.	.	.
=48	=48	=48	=48
4.BB-\ 4.Fn\	(8.ee-/L	4.a-\	.
.	32ffn/LL	.	.
.	32ee-/JJJ	.	.
.	8ddn/)	.	.
8BB-'\ (8F'\L	(8d'/ 8a-'/L	4.r	.
8BB-'\ 8F'\	8d'/ 8a-'/	.	.
8BB-'\ 8F'\J)	8d'/) 8a-'/J	.	.
*	*v	*v	*
=49	=49	=49
4BB-\ 4F\	4d/ 4a-/	.
8r	8r	.
8B-\ (8f\L	8dd'\ (8aa-'\L	.
8B-'\ 8f'\	8dd'\ 8aa-'\	.
8B-'\ 8f'\J)	8dd'\ 8aa-'\J)	.
=50	=50	=50
*	*^	*
4B-\ 4f\	(8.aa-/L	4dd\	.
.	32aa-q/LLL	.	.
.	32ggq/	.	.
.	32aa-q/JJJ	.	.
.	32bb-/LL	.	.
.	32ccc/JJJ	.	.
4r	2r	16bb-\LL	.
.	.	16aa-\)	.
.	.	(16gg\	.
.	.	16ff\JJ)	.
4r	.	(16ee-\LL	.
.	.	16dd\)	.
.	.	(16cc\	.
.	.	16b-\JJ)	.
=51	=51	=51	=51
2E-\	(8.b-/L	4g\	.
.	32cc/LL	.	.
.	32b-/JJJ	.	.
.	(8a-/L)	8f\L	.
.	8g/	8e-\	.
4r	8cc/	8a-\	.
.	8b-/J)	8g\J	.
=52	=52	=52	=52
(16E-\LL	(8.b-/L	4g\	.
16G\	.	.	.
16B-\	.	.	.
16E-\JJ	32cc/LL	.	.
.	32b-/JJJ	.	.
16F\LL	4a-/	2r	.
16A-\	.	.	.
16d\	.	.	.
16F\JJ	.	.	.
16G\LL	[4g/	.	.
16B-\	.	.	.
16e-\	.	.	.
16G\JJ	.	.	.
*	*v	*v	*
=53	=53	=53
2.A-\ 2.c\)	16g/LL])	.
.	16en/	.
.	(16f/	.
.	16g/JJ	.
.	16a-/LL	.
.	16an/	.
.	16b-/	.
.	16bn/JJ	.
.	32dd\LLL	.
.	32cc\	.
.	32b\	.
.	32cc\JJJ	.
.	32b-/LLL	.
.	32a-/	.
.	32g/	.
.	32f/JJJ)	.
=54	=54	=54
(16AAn/LL	(4G/ (4e-/	.
16BB-/	.	.
16C/	.	.
16BB-/JJ)	.	.
4BB-/	32F/) 32d/LLL)	.
.	(32B-/	.
.	32An/	.
.	32B-/JJJ	.
.	32Bn/LLL	.
.	32c/	.
.	32d-/	.
.	32dn/JJJ	.
4r	32e-/LLL	.
.	32en/	.
.	32f/	.
.	32f#/JJJ	.
.	32g/LLL	.
.	32a-/	.
.	32an/	.
.	32b-/JJJ)	.
=55	=55	=55
*^	*^	*
4EE-/ 4E-/	2r	8.b-/L	4g\	.
.	.	32cc/LL	.	.
.	.	32b-/JJJ	.	.
4r	.	4r	32a-\LLL	.
.	.	.	32g\	.
.	.	.	32cc\	.
.	.	.	32b-\JJJ	.
.	.	.	32ee-\LLL	.
.	.	.	32dd\	.
.	.	.	32ff\	.
.	.	.	32ee-\JJJ	.
4c/	4E-\	4r	32aa-\LLL	.
.	.	.	32gg\	.
.	.	.	32ff#\	.
.	.	.	32gg\JJJ	.
.	.	.	32ffn\LLL	.
.	.	.	32ee-\	.
.	.	.	32dd\	.
.	.	.	32cc\JJJ	.
*	*	*v	*v	*
=56	=56	=56	=56
4c/	4F\	(8b-/	.
.	.	4an/	.
4d/	8B-\L	.	.
.	8Bn\	[8a-/	.
[4e-/	8c\	16a-/LL]	.
.	.	16g/	.
.	8G\J	16ee-/	.
.	.	16dd-/JJ)	.
=57	=57	=57	=57
8e-/]	8A-\	(16bn\LL	.
.	.	16cc\	.
8r	8r	16ddn\)	.
.	.	16ee-\JJ	.
4G/	2BB-\	(8ee-\L	.
.	.	[8b-\J	.
4A-/	.	16b-\LL]	.
.	.	32cc\L	.
.	.	32b-\JJJ)	.
.	.	(32b-/LLL	.
.	.	32a-/	.
.	.	32g/	.
.	.	32f/JJJ	.
*v	*v	*	*
=58	=58	=58
16E-\LL	4e-/)	.
16G\	.	.
16B-\	.	.
16G\JJ	.	.
16E-\LL	8r	.
16G\	.	.
16B-\	(8g'/ 8b-'/L	.
16G\JJ	.	.
16E-\LL	8g'/ 8b-'/	.
16G\	.	.
16B-\	8g'/) 8b-'/J	.
16G\JJ	.	.
=59	=59	=59
*	*^	*
16E-\LL	(8ee-/	4.a-\	.
16F\	.	.	.
16A-\	4dd/)	.	.
16F\JJ	.	.	.
16E-\LL	.	.	.
16F\	.	.	.
16A-\	4.r	(16bb-\LL	.
16F\JJ	.	16aa-\JJ)	.
16E-\LL	.	(16gg\LL	.
16F\	.	16ff\)	.
16A-\	.	(16ee-\	.
16F\JJ	.	16dd\JJ)	.
*	*v	*v	*
=60	=60	=60
16E-\LL	(16ff\LK	.
16G\	8ee-\	.
16B-\	.	.
16G\JJ	32dd\LL	.
.	32cc\JJJ	.
16E-\LL	8b-\)	.
16G\	.	.
16B-\	(8g'/ 8b-'/L	.
16G\JJ	.	.
16E-\LL	8g'/ 8b-'/	.
16G\	.	.
16B-\	8g'/) 8b-'/J	.
16G\JJ	.	.
=61	=61	=61
*	*^	*
(16E-\LL	(16ee-/LL	8a-\	.
16F\	16dd/JJ	.	.
16A-\	8r	4ccc\)	.
16F\JJ	.	.	.
16E-\LL	4r	.	.
16F\	.	.	.
16A-\	.	32bb-\LLL	.
.	.	(32aa-\	.
16F\JJ	.	32ccc\	.
.	.	32aa-\JJJ	.
16E-\LL	4r	32gg\LLL	.
.	.	32ff\	.
16F\	.	32aa-\	.
.	.	32ff\JJJ	.
16A-\	.	32ee-\LLL	.
.	.	32dd\	.
16F\JJ)	.	32ff\	.
.	.	32dd\JJJ	.
=62	=62	=62	=62
4E-\ 4G\	4r	32ee-\LLL	.
.	.	32ff\	.
.	.	32ee-\	.
.	.	(32dd\JJJ	.
.	.	48ee-\LLL	.
.	.	48een\	.
.	.	48ff\)	.
.	.	32ff#\	.
.	.	32gg\JJJ	.
8r	8r	8b-\	.
(8G\L	(8b-/L	8g\L	.
8A-\	8a-/	8fn\	.
8An\J)	8g/J)	8e-\J	.
=63	=63	=63	=63
[4B-\	(16b-/LL	(4e-\	.
.	16an/	.	.
.	16b-/	.	.
.	16g/JJ	.	.
16B-\LL]	4f/)	4d\)	.
(16Bn\	.	.	.
16c\	.	.	.
16B-\JJ)	.	.	.
(16B-\LL	4r	4r	.
16A-\	.	.	.
16G\	.	.	.
16F\JJ)	.	.	.
*	*v	*v	*
=64	=64	=64
.	(32b-q/	.
(8E-\L	4.bb-\)	.
8G\	.	.
8B-\	.	.
8e-\J)	(32aa-\LLL	.
.	32gg\	.
.	32ff\	.
.	32ee-\JJJ	.
*clefG2	*	*
(8a-/L	8dd\L	.
8g/J)	8ee-\J)	.
=65	=65	=65
*	*^	*
(8f/ 8a-/L	8ff/L	(8dd\L	.
8e-/) 8g/J	(32aa-/LL	8ee-\J)	.
.	32gg/	.	.
.	32ff/	.	.
.	32gg/JJJ	.	.
8d/ 8f/	8aa-/)	8ff\	.
8r	4.r	(8b-'\L	.
4r	.	8b-'\	.
.	.	8b-'\J)	.
=66	=66	=66	=66
8r	2r	(4.aa-\	.
(8B-/L	.	.	.
8d/	.	.	.
8f/J	.	32bb-\LLL	.
.	.	32aa-\	.
.	.	32gg\	.
.	.	32ff\JJJ)	.
8g/L)	8ee-/L	8ee-\L	.
8a-/ [8b-/J	8ff/J	8dd\J	.
=67	=67	=67	=67
8g/ 8b-/L]	(8gg/L	(8ee-\L	.
8f/ 8a-/J	32bb-/LL	8ff\J)	.
.	32aa-/	.	.
.	32gg/	.	.
.	32aa-/JJJ	.	.
8e-/ 8g/	8bb-/)	8gg\	.
*clefF4	*	*	*
(8EE-'/ 8E-'/L	4.r	8r	.
8EE-'/ 8E-'/	.	4r	.
8EE-'/) 8E-'/J	.	.	.
*	*v	*v	*
=68	=68	=68
8r	4.dd-\	.
8G\ 8e-\L	.	.
8G\ 8e-\	.	.
.	(32ee-q/LLL	.
.	32dd-q/	.
.	32ccq/	.
.	32dd-q/JJJ	.
8G\ 8e-\	16ee-\LL	.
.	16ff\JJ	.
8G\ 8e-\	16ee-\LL	.
.	16dd-\	.
8G\ 8e-\J	16cc\	.
.	16bn\JJ)	.
=69	=69	=69
*^	*	*
8r	8r	([4bn\	.
8A-\ 8e-\L	(8G\L	.	.
8A-\ 8e-\	8A-\J)	16b\LL]	.
.	.	16cc\	.
8A-\ 8e-\J	4.r	16ee-\	.
.	.	16ddn\JJ	.
4e-/	.	16ff\LL	.
.	.	16ee-\	.
.	.	16dd\	.
.	.	16cc\JJ)	.
*v	*v	*	*
=70	=70	=70
*	*^	*
8G\ 8e-\L	(24b-\LL	2r	.
.	24bn\	.	.
.	24cc\JJ	.	.
8A-\ 8e-\J	24dd-\LL	.	.
.	24ddn\)	.	.
.	24ee-\JJ	.	.
.	(32ee-q/	.	.
8BB-\ 8G\L	4e-/)	.	.
8BB-\ 8G\	.	.	.
8BB-\ 8A-\	4d\	(16g/LL	.
.	.	16f/	.
8BB-\ 8A-\J	.	16e-/	.
.	.	16f/JJ)	.
=71	=71	=71	=71
16E-\ 16G\	4e-/	4e-\	.
(16E-\LL	.	.	.
16G\	.	.	.
16B-\JJ	.	.	.
16A-\LL	8r	2r	.
16B-\	.	.	.
16G\	8e-/ 8b-/L	.	.
16B-\JJ	.	.	.
16F\LL	8f/ 8b-/	.	.
16B-\	.	.	.
16E-\	8g/ 8b-/J	.	.
16B-\JJ	.	.	.
=72	=72	=72	=72
16D\LL	([8b-/L	4.a-\	.
16F\	.	.	.
16A-\	32b-/LL]	.	.
.	32cc/	.	.
16G\JJ	32b-/	.	.
.	32an/JJJ	.	.
16F\LL	8b-/)	.	.
16E-\	.	.	.
16D\	4.r	8d\ (8b-\L	.
16C\JJ	.	.	.
16BB-/LL	.	8e-\ 8cc\	.
16C/	.	.	.
16AA-/	.	8f\ 8dd\J)	.
16BB-/JJ	.	.	.
=73	=73	=73	=73
16GG/LL	([8ee-/L	4.e-\	.
16BB-/	.	.	.
16E-/	32ee-/LL]	.	.
.	32ff/	.	.
16BB-/JJ	32gg/	.	.
.	32ee-/JJJ	.	.
8G'\)	8b-'/	.	.
8E-\ (8G\L	4.r	(8g/ 8b-/L)	p
8F\ 8A-\	.	8f/ 8a-/	.
8G\ 8B-\J)	.	8e-/) 8g/J	.
*	*v	*v	*
=74	=74	=74
*^	*	*
4.r	4A-\ 4c\	([8f/L	.
.	.	32f/LL]	.
.	.	32g/	.
.	.	32a-/	.
.	.	32f/JJJ	.
.	8r	8cc\)	.
8F/L	8AA-\	(8c/ 8a-/L	.
(8G/	4BB-\	8B-/ 8e-/	.
8A-/J)	.	8d/) 8f/J	.
=75	=75	=75	=75
*	*	*^	*
(4A-/	[4E-\	(4d\	(8.f/L	.
.	.	.	16f#/Jk	.
16G/)	16E-\]	8e-\)	8g/)	.
*clefG2	*clefG2	*	*	*
(16e-/LL	8.r	.	.	.
16g/	.	8ee-\ 8bb-\L	4.r	.
16b-/JJ	.	.	.	.
16a-/LL	4r	8ffn\ 8bb-\	.	.
16g/	.	.	.	.
16f/	.	8gg\ 8bb-\J	.	.
16e-/JJ	.	.	.	.
*v	*v	*	*	*
=76	=76	=76	=76
16d/LL	[8bb-/L	(4.aa-\	.
16f/	.	.	.
16a-/	32bb-/LL]	.	.
.	32ccc/	.	.
16g/JJ	32bb-/	.	.
.	32aan/JJJ	.	.
16f/LL	8bb-/)	.	.
16e-/	.	.	.
16d/	4.r	8dd\ (8bb-\L	.
16c/JJ	.	.	.
16B-/LL	.	8ee-\ 8ccc\	.
16c/	.	.	.
16A-/	.	8ff\ 8ddd\J)	.
16B-/JJ	.	.	.
=77	=77	=77	=77
16G/LL	[8eee-/L	4.ee-\	.
16B-/	.	.	.
16c/	(32eee-/LL]	.	.
.	32ddd/	.	.
16d/JJ	32eee-/	.	.
.	32bb-/JJJ	.	.
8e-/)	8gg'/)	.	.
(8e-/ 8g/L	4.r	8gg\ (8bb-\L	.
8f/ 8a-/	.	8ff\ 8aa-\	.
8g/) 8b-/J	.	8ee-\ 8gg\J)	.
*	*v	*v	*
=78	=78	=78
*^	*	*
4a-\ 4cc\	2r	(32een\LLL	.
.	.	32ff\	.
.	.	32gg\	.
.	.	32ff\JJJ	.
.	.	32aa-\LLL	.
.	.	32gg\	.
.	.	32bb-\	.
.	.	32aa-\JJJ	.
4r	.	4ccc\	.
8d/L	4B-\ 4a-\	8bb-\L)	.
8f/J	.	16r	.
.	.	16dd\Jk	.
*v	*v	*	*
=79	=79	=79
16e-/LL	4ee-\	.
(16g/	.	.
16b-/	.	.
16g/JJ	.	.
16e-/LL	8r	.
16g/	.	.
16b-/	(8ddd-\L	.
16g/JJ	.	.
16a-/LL	8ccc\	.
16f/	.	.
16b-/	8dddn\J	.
16a-/JJ	.	.
=80	=80	=80
16g/LL	8fff\L	.
16b-/	.	.
16g/	8eee-\J)	.
16f/JJ	.	.
*clefF4	*	*
16e-\LL	8r	.
16d-\	.	.
16B-\	(8dd-\L	.
16G\JJ	.	.
16A-\LL	8cc\	.
16F\	.	.
16B-\	8a-\ 8ddn\J)	.
16BB-\JJ	.	.
=81	=81	=81
*>B1	*>B1	*>B1
4.E-\)	(4a-\ (4ff\	.
.	8g\) 8ee-\)	.
(8A-\L	(8d/ 8f/L	.
8G\	8e-/ 8g/	.
8F\J)	8f/) 8a-/J	.
=82:|!	=82:|!	=82:|!
*>B2	*>B2	*>B2
4.E-\	4a-\ (4ff\	.
.	8g\ 8ee-\)	.
8r	(8d/ 8f/L	pp
8r	8e-/ 8g/	.
8BB-/	8f/) 8a-/J	.
=83	=83	=83
[2EE-/ [2E-/	(2d/ 2f/ 2a-/	.
8EE-/] 8E-/]	8e-/) 8g/	.
8r	8r	.
==	==	==
*-	*-	*-
!!!SMS: Alte Mozart-Ausgabe, Band 20, Breitkopf &amp; H&auml;rtel 1877-1883.
!!!ONB: Stich und Druck von Breitkopf &amp; H&auml;rtel in Leipzig
!!!ONB: Ausgegeben 1878
!!!ENC: Craig Stuart Sapp
!!!END: 2009/10/09/
!!!title: @{OTL}, K 309 (284b), @{OMV}
!!!hum2abc: --no-tempo -s 0.65 --spacing 2.0 -p "%gracespace  0 6.0 12.0"
